X: 10901
Q: "Slow."
M: C
L: 1/8
K: D
|:\
|: (A>B) |\
d2f2 {g}f2(ef) | (gf)(ed) B2(A>B) |\
d2f2 (gf)(ed) | (f3g) a3b |\
a2f2 {g}f2(ef) | (gf)(ed) B2g2 |\
(f>g)a2 (A>B) (A/G/F/G/) | A4 d2 :|


